packages/ffe-icons/icons/filled/sm/view_sidebar.svg

<svg xmlns="http://www.w3.org/2000/svg" height="20" viewBox="0 -960 960 960" width="20"><path d="M724.229-611.999q-22.692 0-35.461-12.769-12.769-12.769-12.769-35.461v-63.539q0-23.077 12.769-35.654 12.769-12.577 35.461-12.577h71.539q23.077 0 35.654 12.577 12.577 12.577 12.577 35.654v63.539q0 22.692-12.577 35.461-12.577 12.769-35.654 12.769h-71.539Zm-1 211.999q-22.692 0-35.461-12.769-12.769-12.769-12.769-35.461v-63.54q0-23.076 12.769-35.653Q700.537-560 723.229-560h72.539q23.077 0 35.654 12.577 12.577 12.577 12.577 35.653v63.54q0 22.692-12.577 35.461Q818.845-400 795.768-400h-72.539Zm-542.92 211.999q-30.308 0-47.308-17t-17-47.308v-455.382q0-30.308 17-47.308t47.308-17h379.384q30.307 0 47.307 17 17 17 17 47.308v455.382q0 30.308-17 47.308t-47.307 17H180.309Zm542.92 0q-22.692 0-35.461-12.77-12.769-12.769-12.769-35.461v-63.539q0-23.077 12.769-35.654 12.769-12.576 35.461-12.576h72.539q23.077 0 35.654 12.576 12.577 12.577 12.577 35.654v63.539q0 22.692-12.577 35.461-12.577 12.77-35.654 12.77h-72.539Z"/></svg>

<svg xmlns="http://www.w3.org/2000/svg" height="20" viewBox="0 -960 960 960" width="20"><path d="M724.23-612q-22.69 0-35.46-12.77T676-660.23v-63.54q0-23.07 12.77-35.65Q701.54-772 724.23-772h71.54q23.07 0 35.65 12.58Q844-746.84 844-723.77v63.54q0 22.69-12.58 35.46T795.77-612h-71.54Zm-1 212q-22.69 0-35.46-12.77T675-448.23v-63.54q0-23.08 12.77-35.65Q700.54-560 723.23-560h72.54q23.07 0 35.65 12.58Q844-534.85 844-511.77v63.54q0 22.69-12.58 35.46T795.77-400h-72.54ZM180.31-188Q150-188 133-205q-17-17-17-47.31v-455.38Q116-738 133-755q17-17 47.31-17h379.38Q590-772 607-755q17 17 17 47.31v455.38Q624-222 607-205q-17 17-47.31 17H180.31Zm542.92 0q-22.69 0-35.46-12.77T675-236.23v-63.54q0-23.08 12.77-35.65Q700.54-348 723.23-348h72.54q23.07 0 35.65 12.58Q844-322.85 844-299.77v63.54q0 22.69-12.58 35.46T795.77-188h-72.54Z"/></svg>
